X:4
T:Long Bow, the
C:Liz Carroll
R:jig
Z:Transcribed by Lionel Gueganton
M:6/8
K:Em
z4z^F|
|: GEFEGA | BeedBA  | FDFded  | Aagfed   |
   efeBAF | dedADA, | DFAded  |1 BAFE2F :|2 BAFE2B
|: e2Ba2A | BGEEEE  | d2DADA, | DFAded   | 
   BAFGEE | BAFDFA  | dagfed  |1 BAFE2B :|2 BAFE2F

